!!!OTL: No_155_Mīde'_Song.krn
!!!REG: Great_Lakes
!!!LANG: Non-Tone
!!!LING_GROUP: Algonquin
!!!SOCIAL_FUNCTION: mide songs
**kern	**kern
*staff2	*staff1
*clefF4	*clefF4
*k[f#]	*k[f#]
*M2/4	*M2/4
4r	8d\L
.	8d\J
=1	=1
8GG/L	4.d\
8GG/J	.
8GG/L	.
8GG/J	8d\
=2	=2
2r	2d\
=3	=3
2r	2d\
=4	=4
2r	4d\
.	8d\L
.	8B\J
=5	=5
2r	[2d\
=6	=6
2r	4d\]
.	8d\L
.	8d\J
=7	=7
2r	4.B\
.	8B\
=8	=8
2r	2G\
=9	=9
2r	2G\
=10	=10
2r	[2G\
=11	=11
2r	4G\]
.	8G\L
.	8E\J
=12	=12
2r	2G\
=13	=13
2r	8G\L
.	8G\J
.	8d\L
.	8d\J
=14	=14
2r	4.B\
.	8G\
=15	=15
2r	2G\
=16	=16
2r	4B\
.	8B\L
.	8G\J
=17	=17
2r	4.G\
.	8G\
=18	=18
2r	4G\
.	8G\L
.	8G\J
=19	=19
2r	4.D\
.	8D\
=20	=20
2r	2D\
=21	=21
2r	2D\
=22	=22
2r	4D\
.	8D/L
.	8BB/J
=23	=23
2r	4D\
.	8D\L
.	8D\J
=24	=24
2r	4.BB/
.	8GG/
=25	=25
2r	2GG/
=26	=26
2r	4BB/
.	8GG/L
.	8GG/J
=27	=27
2r	2GG/
=28	=28
2r	4GG/
.	4r
==	==
*-	*-
